X: 1
T: Castle Bray
M: 4/4
L: 1/8
R: strathspey
K: Amaj
A2 (3Bcd ed c<A|A,B, =CE D<=G, B,G,|A,B, =CD E<A, CD|EA ce dB GB|
A2 (3Bcd ed c<A|A,B, =CE D<=G, B,G,|A,B, =CD EA ^ce|dB GB c<A AB|
ce ac dc BA|GA Ba (3gfe (3dcB|ce ac dc BA|GB dB c<A AB|
ce ac dc BA|GA Bc de fg|a2 ga (3fga ec|1 df ec Aa ga:|2 df ec A4:||
